X:1
T:Petite et accipietis
T:Ignatio Donati
T:Source : Primo libro di Motetti a voce sola---Venetia---A.Vincenti---1634. Editor: André Vierendeels (09/12/16).
T:Notes : Original clefs : C1, F4 Editorial accidentals above the staff Figures in BC are notated in original print m 30 in BC : "C" notated as quarter in original print Original note values have been halved in 3-beat measures  
T:Petite et accipietis
T:©
T:©
T:©
T:©
T:©
T:©
C:Ignatio Donati
Z:©
%%score 1 2
L:1/8
Q:1/4=111
M:6/4
K:F
V:1 treble nm="Soprano" snm="S"
V:2 bass nm="MusicXML Part"
V:1
 c6 A2 c4 | d6 B2 d4 |[M:4/4] ABAB c4- | cGAB G4 | F8 |[M:6/4] G6 E2 G4 | A6 F2 A4 | %7
w: Pe- ti- te,|pe- ti- te|et _ _ _ _|_ ac- ci- pi- e-|tis,|pe- ti- te,|pe- ti- te|
[M:4/4] BcBc d4- | dABc A4 |"^-natural" G8 |[M:6/4] G6 B2 A4 | c6 d2 B4 | d6 _e2 ^c4 | %13
w: et _ _ _ _|_ ac- ci- pi- e-|tis,|que- ri- te,|que- ri- te,|que- ri- te|
[M:4/4] d3 d d2 A2 | B/A/B/c/ d/A/B/c/ d/c/B/A/ B/c/d/B/ | c/A/B/c/ d/c/d/B/ c4 | B8 | %17
w: et in- ve- ni-|e- * * * * * * * * * * * * * * *||tis,|
[M:6/4] d4 d4 c2 A2 | B4 B4 A2 B2 | c2 _e2 d2 c2 d4 | c8 z4 | A4 A4 G2 E2 | F4 F4 D2 E2 | %23
w: pul- sa- te, pul-|sa- te et a-|pe- ri- e- tur vo-|bis,|pul- sa- te, pul-|sa- te et a-|
 F2 A2 G2 F2 G4 | F8 E2 F2 | G2 B2 A2 G2 A4 |[M:4/4] G4 z2 B2 | AB cB AG BA | GF E2 F4 | %29
w: pe- ri- e- tur vo-|bis, et a-|pe- ri- e- tur vo-|bis, al-|le- * lu- * ia, _ al- *|le- * lu- ia,|
 z2 c2 Bc dc | BA cB AG ^F2 | G8 |[M:6/4] c6 A2 c4 | d6 B2 d4 | e6 e2 c4 |[M:4/4] BcBc d4- | %36
w: al- le- * lu- *|ia, _ al- * le- * lu-|ia,|pe- ti- te,|pe- ti- te,|pe- ti- te|et _ _ _ _|
 dBBA A4 | G8 |[M:6/4] G6 E2 G4 | A6 F2 A4 | B6 B2 G4 |[M:4/4] ABAB c4- | cAAG G4 | F4 z2 F2 | %44
w: _ ac- ce- pi- e-|tis,|que- ri- te,|que- ri- te,|que- ri- te|et _ _ _ _|_ in- ve- ni- e-|tis, et|
 c2 cc d2 AB | ^c2 d4 c2 | d4 z2 A2- | A2 B2 c2 d2 | _ed fe d3 c | c4 z2 G2- | G2 A2 BA cB | %51
w: gau- di- um ve- strum fit|ple- * *|num i-|* pse e- nim|pa- * ter _ a- mat|vos qui-|* a me _ a- *|
 A4 G2 B2 | cd _ed c4 | B2 F2 GA BA | G4 F4 | z2 A2 BA G2 | A2 d2 _ed c2 | d2 B2 cB A2 | %58
w: ma- tis et|cre- * di- * di-|stis, et cre- * di- *|di- stis,|al- le- * lu-|ia, al- le- * lu-|ia, al- le- * lu-|
 B2 G2 AG ^F2 | G2 c2 BA G2 | F4 c4- | c4 B/A/G/F/ G/E/F/G/ | A/E/F/G/ A/B/c/F/ G/A/B/G/ c/B/A/G/ | %63
w: ia, al- le- * lu-|ia, al le- * lu-|ia, al-|* le- * * * * * * *||
 c/B/A/G/ A/G/A/F/ G4 | F8 |] %65
w: * * * * * * * * lu-|ia.|
V:2
"^BC" F,8 F,4 | B,,8 B,,4 |[M:4/4] F,,4 A,,2 B,,2 | C,2 B,,2 C,4 | F,,8 |[M:6/4] C,8 C,4 | %6
 F,8 F,4 |[M:4/4] B,,6 C,2 |"^#" D,2 C,2 D,4 | G,,8 |[M:6/4] _E,4 G,4 F,4 | A,4 F,4 G,4 | %12
"^#" B,4 G,4 A,4 |[M:4/4]"^#" D,8 | G,8 | F,8 | B,,8 |[M:6/4] B,4 B,4 A,4 | G,4 G,4 F,4 | %19
"^b""^b""^-natural" C,4 C,4 G,4 | C,8 z4 | F,4 F,4 E,4 | D,4 D,4 B,,4 | F,,8 C,4 | F,,8 C,4 | %25
 G,,8 D,4 |[M:4/4]"^#""^-natural""^b" G,,4 G,,4 | A,,2 B,,2 C,2 D,2 | B,,2 C,2 F,,4 | %29
 A,,4 B,,2 C,2 |"^#" D,2 _E,2 C,2 D,2 |"^-natural" G,,8 |[M:6/4] F,,8 F,,4 | B,,8 B,,4 | %34
"^b" _E,4 C,4 F,4 |[M:4/4] B,,6 C,2 |"^#" D,8 |"^-natural" G,,8 |[M:6/4] C,8 C,4 | F,8 F,4 | %40
"^-natural" B,,4 G,,4 C,4 |[M:4/4] F,,4 A,,2 B,,2 | C,8 | F,,4 F,4 | F,2 E,2 D,4 |"^#" A,,8 | %46
"^#""^-natural" D,4 D,4 | D,2 G,2 F,2 D,2 |"^b""^-natural" C,2 F,,2 G,,4 | C,4 C,4 | %50
 B,,2 A,,2 G,,2 C,2 |"^#" D,4 G,,2 G,2 | F,2 _E,2 F,4 | B,,2 D,2 C,2 B,,2 | C,4 F,,4 | %55
 F,4 D,2 E,2 |"^b" F,2 D,2 C,2 F,2 |"^6" B,,2 G,2 E,2 F,2 |"^6""^b""^#""^6" D,2 _E,2 C,2 D,2 | %59
 G,,2 A,,2 B,,2 C,2 | F,,8 | C,8- | C,8- | C,8 | F,,8 |] %65

